assets/sprite/svg/objects/World_Space_JavaScript.svg

<svg height="306" viewBox="0 0 1290 306" width="1290" xmlns="http://www.w3.org/2000/svg"><g fill="#da4f0c"><path d="m38.36 121.81v-15.68h-15.67v-15.68h31.31v15.68h47v-94h31.35v94.05h-15.61v15.68z"/><path d="m148.09 121.81v-78.38h15.68v-15.68h15.67v-15.67h47v15.67h15.67v15.68h15.68v78.38h-31.32v-31.36h-47v31.36zm31.35-47h47v-31.38h-15.65v-15.68h-15.67v15.68h-15.68z"/><path d="m320.52 121.81v-15.68h-15.67v-15.68h-15.68v-15.67h-15.67v-62.7h31.35v47h15.67v15.7h15.68v-15.68h15.67v-47h31.35v62.7h-15.67v15.65h-15.68v15.68h-15.67v15.68z"/><path d="m398.9 121.81v-78.38h15.68v-15.68h15.67v-15.67h47v15.67h15.75v15.68h15.68v78.38h-31.4v-31.36h-47v31.36zm31.35-47h47v-31.38h-15.65v-15.68h-15.67v15.68h-15.68z"/><path d="m540 121.81v-15.68h-15.7v-15.68h31.35v15.68h47v-31.35h-62.65v-15.68h-15.7v-31.35h15.7v-15.67h78.38v15.67h15.62v15.68h-31.32v-15.68h-47v31.35h62.71v15.68h15.61v31.35h-15.64v15.68z"/><path d="m681.06 121.81v-15.68h-15.68v-15.68h-15.67v-47h15.67v-15.7h15.68v-15.67h62.7v15.67h15.68v15.68h-31.35v-15.68h-31.36v15.68h-15.67v47h15.67v15.68h31.36v-15.66h31.35v15.68h-15.68v15.68z"/><path d="m775.11 121.81v-109.73h94.06v15.67h15.67v47h-31.35v15.7h15.68v15.68h15.67v15.68h-47v-15.68h-15.7v-15.68h-15.68v31.36zm31.35-47h31.35v-15.71h15.68v-31.35h-47z"/><path d="m916.19 121.81v-15.68h31.35v-78.38h-31.35v-15.67h94.06v15.67h-31.36v78.38h31.36v15.68z"/><path d="m1025.92 121.81v-109.73h94v15.67h15.68v47h-15.6v15.7h-62.7v31.36zm31.35-47h47v-47h-47z"/><path d="m1198.35 121.81v-94.06h-31.35v-15.67h94v15.67h-31.3v94.06z"/><path d="m96.69 272.29v-109.73h78.38v15.68h15.67v15.67h15.68v47h-15.68v15.67h-15.67v15.68zm31.31-15.68h31.35v-15.67h15.68v-47h-15.64v-15.7h-31.39z"/><path d="m222.09 272.29v-109.73h109.73v15.68h-78.38v31.35h62.7v15.67h-62.7v31.35h78.38v15.68z"/><path d="m394.52 272.29v-15.68h-15.67v-15.67h-15.68v-15.68h-15.67v-62.7h31.35v47h15.67v15.67h15.68v-15.64h15.67v-47h31.35v62.7h-15.67v15.68h-15.68v15.67h-15.67v15.68z"/><path d="m472.9 272.29v-109.73h109.73v15.68h-78.38v31.35h62.75v15.67h-62.7v31.35h78.38v15.68z"/><path d="m614 272.29v-109.73h31.35v94.05h62.65v15.68z"/><path d="m739.38 272.29v-15.68h-15.67v-78.37h15.67v-15.68h78.38v15.68h15.68v78.37h-15.68v15.68zm15.68-15.68h47v-78.37h-47z"/><path d="m849.11 272.29v-109.73h94.06v15.68h15.67v47h-15.67v15.68h-62.71v31.35zm31.35-47h47v-47h-47z"/><path d="m974.52 272.29v-109.73h109.73v15.68h-78.38v31.35h62.7v15.67h-62.7v31.35h78.38v15.68z"/><path d="m1099.92 272.29v-109.73h94v15.68h15.68v47h-31.3v15.68h15.7v15.67h15.68v15.68h-47v-15.66h-15.68v-15.67h-15.68v31.35zm31.35-47h31.35v-15.7h15.68v-31.35h-47z"/></g><path d="m43.36 133.81v-15.68h-15.67v-15.68h31.31v15.68h47v-94h31.35v94.05h-15.61v15.68z" fill="#f26522"/><path d="m153.09 133.81v-78.38h15.68v-15.68h15.67v-15.67h47v15.67h15.67v15.68h15.68v78.38h-31.32v-31.36h-47v31.36zm31.35-47h47v-31.38h-15.65v-15.68h-15.67v15.68h-15.68z" fill="#f26522"/><path d="m325.52 133.81v-15.68h-15.67v-15.68h-15.68v-15.67h-15.67v-62.7h31.35v47h15.67v15.7h15.68v-15.68h15.67v-47h31.35v62.7h-15.67v15.67h-15.68v15.68h-15.67v15.68z" fill="#f26522"/><path d="m403.9 133.81v-78.38h15.68v-15.68h15.67v-15.67h47v15.67h15.75v15.68h15.68v78.38h-31.4v-31.36h-47v31.36zm31.35-47h47v-31.38h-15.65v-15.68h-15.67v15.68h-15.68z" fill="#f26522"/><path d="m545 133.81v-15.68h-15.7v-15.68h31.35v15.68h47v-31.35h-62.65v-15.68h-15.7v-31.35h15.7v-15.67h78.38v15.67h15.62v15.68h-31.32v-15.68h-47v31.35h62.71v15.68h15.61v31.35h-15.64v15.68z" fill="#f26522"/><path d="m686.06 133.81v-15.68h-15.68v-15.68h-15.67v-47h15.67v-15.7h15.68v-15.67h62.7v15.67h15.68v15.68h-31.35v-15.68h-31.36v15.68h-15.67v47h15.67v15.68h31.36v-15.66h31.35v15.68h-15.68v15.68z" fill="#f26522"/><path d="m780.11 133.81v-109.73h94.06v15.67h15.67v47h-31.35v15.67h15.68v15.68h15.67v15.68h-47v-15.65h-15.7v-15.68h-15.68v31.36zm31.35-47h31.35v-15.71h15.68v-31.35h-47z" fill="#f26522"/><path d="m921.19 133.81v-15.68h31.35v-78.38h-31.35v-15.67h94.06v15.67h-31.36v78.38h31.36v15.68z" fill="#f26522"/><path d="m1030.92 133.81v-109.73h94v15.67h15.68v47h-15.6v15.67h-62.7v31.36zm31.35-47h47v-47h-47z" fill="#f26522"/><path d="m1203.35 133.81v-94.06h-31.35v-15.67h94v15.67h-31.3v94.06z" fill="#f26522"/><path d="m101.69 284.29v-109.73h78.38v15.68h15.67v15.67h15.68v47h-15.68v15.67h-15.67v15.68zm31.31-15.68h31.35v-15.67h15.68v-47h-15.64v-15.7h-31.39z" fill="#f26522"/><path d="m227.09 284.29v-109.73h109.73v15.68h-78.38v31.35h62.7v15.67h-62.7v31.35h78.38v15.68z" fill="#f26522"/><path d="m399.52 284.29v-15.68h-15.67v-15.67h-15.68v-15.68h-15.67v-62.7h31.35v47h15.67v15.67h15.68v-15.64h15.67v-47h31.35v62.7h-15.67v15.68h-15.68v15.67h-15.67v15.68z" fill="#f26522"/><path d="m477.9 284.29v-109.73h109.73v15.68h-78.38v31.35h62.75v15.67h-62.7v31.35h78.38v15.68z" fill="#f26522"/><path d="m619 284.29v-109.73h31.35v94.05h62.65v15.68z" fill="#f26522"/><path d="m744.38 284.29v-15.68h-15.67v-78.37h15.67v-15.68h78.38v15.68h15.68v78.37h-15.68v15.68zm15.68-15.68h47v-78.37h-47z" fill="#f26522"/><path d="m854.11 284.29v-109.73h94.06v15.68h15.67v47h-15.67v15.68h-62.71v31.35zm31.35-47h47v-47h-47z" fill="#f26522"/><path d="m979.52 284.29v-109.73h109.73v15.68h-78.38v31.35h62.7v15.67h-62.7v31.35h78.38v15.68z" fill="#f26522"/><path d="m1104.92 284.29v-109.73h94v15.68h15.68v47h-31.3v15.68h15.7v15.67h15.68v15.68h-47v-15.66h-15.68v-15.67h-15.68v31.35zm31.35-47h31.35v-15.7h15.68v-31.35h-47z" fill="#f26522"/><path d="m52.36 139.81v-15.68h-15.67v-15.68h31.31v15.68h47v-94h31.35v94.05h-15.61v15.68z" fill="#f7941d"/><path d="m162.09 139.81v-78.38h15.68v-15.68h15.67v-15.67h47v15.67h15.67v15.68h15.68v78.38h-31.32v-31.36h-47v31.36zm31.35-47h47v-31.38h-15.65v-15.68h-15.67v15.68h-15.68z" fill="#f7941d"/><path d="m334.52 139.81v-15.68h-15.67v-15.68h-15.68v-15.67h-15.67v-62.7h31.35v47h15.67v15.7h15.68v-15.68h15.67v-47h31.35v62.7h-15.67v15.67h-15.68v15.68h-15.67v15.68z" fill="#f7941d"/><path d="m412.9 139.81v-78.38h15.68v-15.68h15.67v-15.67h47v15.67h15.75v15.68h15.68v78.38h-31.4v-31.36h-47v31.36zm31.35-47h47v-31.38h-15.65v-15.68h-15.67v15.68h-15.68z" fill="#f7941d"/><path d="m554 139.81v-15.68h-15.7v-15.68h31.35v15.68h47v-31.35h-62.65v-15.68h-15.7v-31.35h15.7v-15.67h78.38v15.67h15.62v15.68h-31.32v-15.68h-47v31.35h62.71v15.68h15.61v31.35h-15.64v15.68z" fill="#f7941d"/><path d="m695.06 139.81v-15.68h-15.68v-15.68h-15.67v-47h15.67v-15.7h15.68v-15.67h62.7v15.67h15.68v15.68h-31.35v-15.68h-31.36v15.68h-15.67v47h15.67v15.68h31.36v-15.66h31.35v15.68h-15.68v15.68z" fill="#f7941d"/><path d="m789.11 139.81v-109.73h94.06v15.67h15.67v47h-31.35v15.67h15.68v15.68h15.67v15.68h-47v-15.65h-15.7v-15.68h-15.68v31.36zm31.35-47h31.35v-15.71h15.68v-31.35h-47z" fill="#f7941d"/><path d="m930.19 139.81v-15.68h31.35v-78.38h-31.35v-15.67h94.06v15.67h-31.36v78.38h31.36v15.68z" fill="#f7941d"/><path d="m1039.92 139.81v-109.73h94v15.67h15.68v47h-15.6v15.67h-62.7v31.36zm31.35-47h47v-47h-47z" fill="#f7941d"/><path d="m1212.35 139.81v-94.06h-31.35v-15.67h94v15.67h-31.3v94.06z" fill="#f7941d"/><path d="m110.69 290.29v-109.73h78.38v15.68h15.67v15.67h15.68v47h-15.68v15.67h-15.67v15.68zm31.31-15.68h31.35v-15.67h15.68v-47h-15.64v-15.7h-31.39z" fill="#f7941d"/><path d="m236.09 290.29v-109.73h109.73v15.68h-78.38v31.35h62.7v15.67h-62.7v31.35h78.38v15.68z" fill="#f7941d"/><path d="m408.52 290.29v-15.68h-15.67v-15.67h-15.68v-15.68h-15.67v-62.7h31.35v47h15.67v15.67h15.68v-15.64h15.67v-47h31.35v62.7h-15.67v15.68h-15.68v15.67h-15.67v15.68z" fill="#f7941d"/><path d="m486.9 290.29v-109.73h109.73v15.68h-78.38v31.35h62.75v15.67h-62.7v31.35h78.38v15.68z" fill="#f7941d"/><path d="m628 290.29v-109.73h31.35v94.05h62.65v15.68z" fill="#f7941d"/><path d="m753.38 290.29v-15.68h-15.67v-78.37h15.67v-15.68h78.38v15.68h15.68v78.37h-15.68v15.68zm15.68-15.68h47v-78.37h-47z" fill="#f7941d"/><path d="m863.11 290.29v-109.73h94.06v15.68h15.67v47h-15.67v15.68h-62.71v31.35zm31.35-47h47v-47h-47z" fill="#f7941d"/><path d="m988.52 290.29v-109.73h109.73v15.68h-78.38v31.35h62.7v15.67h-62.7v31.35h78.38v15.68z" fill="#f7941d"/><path d="m1113.92 290.29v-109.73h94v15.68h15.68v47h-31.3v15.68h15.7v15.67h15.68v15.68h-47v-15.66h-15.68v-15.67h-15.68v31.35zm31.35-47h31.35v-15.7h15.68v-31.35h-47z" fill="#f7941d"/></svg>

<svg xmlns="http://www.w3.org/2000/svg" width="1290" height="306" viewBox="0 0 1290 306"><title>World_Space</title><g id="Layer_7" data-name="Layer 7"><path d="M38.36,121.81V106.13H22.69V90.45H54v15.68h47v-94h31.35v94.05H116.74v15.68Z" style="fill:#da4f0c"/><path d="M148.09,121.81V43.43h15.68V27.75h15.67V12.08h47V27.75h15.67V43.43h15.68v78.38H226.47V90.45h-47v31.36Zm31.35-47h47V43.43H210.79V27.75H195.12V43.43H179.44Z" style="fill:#da4f0c"/><path d="M320.52,121.81V106.13H304.85V90.45H289.17V74.78H273.5V12.08h31.35v47h15.67V74.78H336.2V59.1h15.67v-47h31.35v62.7H367.55V90.45H351.87v15.68H336.2v15.68Z" style="fill:#da4f0c"/><path d="M398.9,121.81V43.43h15.68V27.75h15.67V12.08h47V27.75H493V43.43h15.68v78.38H477.28V90.45h-47v31.36Zm31.35-47h47V43.43H461.6V27.75H445.93V43.43H430.25Z" style="fill:#da4f0c"/><path d="M540,121.81V106.13H524.3V90.45h31.35v15.68h47V74.78H540V59.1H524.3V27.75H540V12.08h78.38V27.75H634V43.43H602.68V27.75h-47V59.1h62.71V74.78H634v31.35H618.36v15.68Z" style="fill:#da4f0c"/><path d="M681.06,121.81V106.13H665.38V90.45H649.71v-47h15.67V27.75h15.68V12.08h62.7V27.75h15.68V43.43H728.09V27.75H696.73V43.43H681.06v47h15.67v15.68h31.36V90.45h31.35v15.68H743.76v15.68Z" style="fill:#da4f0c"/><path d="M775.11,121.81V12.08h94.06V27.75h15.67v47H853.49V90.45h15.68v15.68h15.67v15.68h-47V106.13H822.14V90.45H806.46v31.36Zm31.35-47h31.35V59.1h15.68V27.75h-47Z" style="fill:#da4f0c"/><path d="M916.19,121.81V106.13h31.35V27.75H916.19V12.08h94.06V27.75H978.89v78.38h31.36v15.68Z" style="fill:#da4f0c"/><path d="M1025.92,121.81V12.08h94V27.75h15.68v47H1120V90.45h-62.7v31.36Zm31.35-47h47v-47h-47Z" style="fill:#da4f0c"/><path d="M1198.35,121.81V27.75H1167V12.08h94V27.75H1229.7v94.06Z" style="fill:#da4f0c"/><path d="M96.69,272.29V162.56h78.38v15.68h15.67v15.67h15.68v47H190.74v15.67H175.07v15.68ZM128,256.61h31.35V240.94h15.68v-47H159.39V178.24H128Z" style="fill:#da4f0c"/><path d="M222.09,272.29V162.56H331.82v15.68H253.44v31.35h62.7v15.67h-62.7v31.35h78.38v15.68Z" style="fill:#da4f0c"/><path d="M394.52,272.29V256.61H378.85V240.94H363.17V225.26H347.5v-62.7h31.35v47h15.67v15.67H410.2V209.59h15.67v-47h31.35v62.7H441.55v15.68H425.87v15.67H410.2v15.68Z" style="fill:#da4f0c"/><path d="M472.9,272.29V162.56H582.63v15.68H504.25v31.35H567v15.67h-62.7v31.35h78.38v15.68Z" style="fill:#da4f0c"/><path d="M614,272.29V162.56h31.35v94.05H708v15.68Z" style="fill:#da4f0c"/><path d="M739.38,272.29V256.61H723.71V178.24h15.67V162.56h78.38v15.68h15.68v78.37H817.76v15.68Zm15.68-15.68h47V178.24h-47Z" style="fill:#da4f0c"/><path d="M849.11,272.29V162.56h94.06v15.68h15.67v47H943.17v15.68H880.46v31.35Zm31.35-47h47v-47h-47Z" style="fill:#da4f0c"/><path d="M974.52,272.29V162.56h109.73v15.68h-78.38v31.35h62.7v15.67h-62.7v31.35h78.38v15.68Z" style="fill:#da4f0c"/><path d="M1099.92,272.29V162.56h94v15.68h15.68v47H1178.3v15.68H1194v15.67h15.68v15.68h-47V256.61H1147V240.94h-15.68v31.35Zm31.35-47h31.35V209.59h15.68V178.24h-47Z" style="fill:#da4f0c"/><path d="M43.36,133.81V118.13H27.69V102.45H59v15.68h47v-94h31.35v94.05H121.74v15.68Z" style="fill:#f26522"/><path d="M153.09,133.81V55.43h15.68V39.75h15.67V24.08h47V39.75h15.67V55.43h15.68v78.38H231.47V102.45h-47v31.36Zm31.35-47h47V55.43H215.79V39.75H200.12V55.43H184.44Z" style="fill:#f26522"/><path d="M325.52,133.81V118.13H309.85V102.45H294.17V86.78H278.5V24.08h31.35v47h15.67V86.78H341.2V71.1h15.67v-47h31.35v62.7H372.55v15.67H356.87v15.68H341.2v15.68Z" style="fill:#f26522"/><path d="M403.9,133.81V55.43h15.68V39.75h15.67V24.08h47V39.75H498V55.43h15.68v78.38H482.28V102.45h-47v31.36Zm31.35-47h47V55.43H466.6V39.75H450.93V55.43H435.25Z" style="fill:#f26522"/><path d="M545,133.81V118.13H529.3V102.45h31.35v15.68h47V86.78H545V71.1H529.3V39.75H545V24.08h78.38V39.75H639V55.43H607.68V39.75h-47V71.1h62.71V86.78H639v31.35H623.36v15.68Z" style="fill:#f26522"/><path d="M686.06,133.81V118.13H670.38V102.45H654.71v-47h15.67V39.75h15.68V24.08h62.7V39.75h15.68V55.43H733.09V39.75H701.73V55.43H686.06v47h15.67v15.68h31.36V102.45h31.35v15.68H748.76v15.68Z" style="fill:#f26522"/><path d="M780.11,133.81V24.08h94.06V39.75h15.67v47H858.49v15.67h15.68v15.68h15.67v15.68h-47V118.13H827.14V102.45H811.46v31.36Zm31.35-47h31.35V71.1h15.68V39.75h-47Z" style="fill:#f26522"/><path d="M921.19,133.81V118.13h31.35V39.75H921.19V24.08h94.06V39.75H983.89v78.38h31.36v15.68Z" style="fill:#f26522"/><path d="M1030.92,133.81V24.08h94V39.75h15.68v47H1125v15.67h-62.7v31.36Zm31.35-47h47v-47h-47Z" style="fill:#f26522"/><path d="M1203.35,133.81V39.75H1172V24.08h94V39.75H1234.7v94.06Z" style="fill:#f26522"/><path d="M101.69,284.29V174.56h78.38v15.68h15.67v15.67h15.68v47H195.74v15.67H180.07v15.68ZM133,268.61h31.35V252.94h15.68v-47H164.39V190.24H133Z" style="fill:#f26522"/><path d="M227.09,284.29V174.56H336.82v15.68H258.44v31.35h62.7v15.67h-62.7v31.35h78.38v15.68Z" style="fill:#f26522"/><path d="M399.52,284.29V268.61H383.85V252.94H368.17V237.26H352.5v-62.7h31.35v47h15.67v15.67H415.2V221.59h15.67v-47h31.35v62.7H446.55v15.68H430.87v15.67H415.2v15.68Z" style="fill:#f26522"/><path d="M477.9,284.29V174.56H587.63v15.68H509.25v31.35H572v15.67h-62.7v31.35h78.38v15.68Z" style="fill:#f26522"/><path d="M619,284.29V174.56h31.35v94.05H713v15.68Z" style="fill:#f26522"/><path d="M744.38,284.29V268.61H728.71V190.24h15.67V174.56h78.38v15.68h15.68v78.37H822.76v15.68Zm15.68-15.68h47V190.24h-47Z" style="fill:#f26522"/><path d="M854.11,284.29V174.56h94.06v15.68h15.67v47H948.17v15.68H885.46v31.35Zm31.35-47h47v-47h-47Z" style="fill:#f26522"/><path d="M979.52,284.29V174.56h109.73v15.68h-78.38v31.35h62.7v15.67h-62.7v31.35h78.38v15.68Z" style="fill:#f26522"/><path d="M1104.92,284.29V174.56h94v15.68h15.68v47H1183.3v15.68H1199v15.67h15.68v15.68h-47V268.61H1152V252.94h-15.68v31.35Zm31.35-47h31.35V221.59h15.68V190.24h-47Z" style="fill:#f26522"/><path d="M52.36,139.81V124.13H36.69V108.45H68v15.68h47v-94h31.35v94.05H130.74v15.68Z" style="fill:#f7941d"/><path d="M162.09,139.81V61.43h15.68V45.75h15.67V30.08h47V45.75h15.67V61.43h15.68v78.38H240.47V108.45h-47v31.36Zm31.35-47h47V61.43H224.79V45.75H209.12V61.43H193.44Z" style="fill:#f7941d"/><path d="M334.52,139.81V124.13H318.85V108.45H303.17V92.78H287.5V30.08h31.35v47h15.67V92.78H350.2V77.1h15.67v-47h31.35v62.7H381.55v15.67H365.87v15.68H350.2v15.68Z" style="fill:#f7941d"/><path d="M412.9,139.81V61.43h15.68V45.75h15.67V30.08h47V45.75H507V61.43h15.68v78.38H491.28V108.45h-47v31.36Zm31.35-47h47V61.43H475.6V45.75H459.93V61.43H444.25Z" style="fill:#f7941d"/><path d="M554,139.81V124.13H538.3V108.45h31.35v15.68h47V92.78H554V77.1H538.3V45.75H554V30.08h78.38V45.75H648V61.43H616.68V45.75h-47V77.1h62.71V92.78H648v31.35H632.36v15.68Z" style="fill:#f7941d"/><path d="M695.06,139.81V124.13H679.38V108.45H663.71v-47h15.67V45.75h15.68V30.08h62.7V45.75h15.68V61.43H742.09V45.75H710.73V61.43H695.06v47h15.67v15.68h31.36V108.45h31.35v15.68H757.76v15.68Z" style="fill:#f7941d"/><path d="M789.11,139.81V30.08h94.06V45.75h15.67v47H867.49v15.67h15.68v15.68h15.67v15.68h-47V124.13H836.14V108.45H820.46v31.36Zm31.35-47h31.35V77.1h15.68V45.75h-47Z" style="fill:#f7941d"/><path d="M930.19,139.81V124.13h31.35V45.75H930.19V30.08h94.06V45.75H992.89v78.38h31.36v15.68Z" style="fill:#f7941d"/><path d="M1039.92,139.81V30.08h94V45.75h15.68v47H1134v15.67h-62.7v31.36Zm31.35-47h47v-47h-47Z" style="fill:#f7941d"/><path d="M1212.35,139.81V45.75H1181V30.08h94V45.75H1243.7v94.06Z" style="fill:#f7941d"/><path d="M110.69,290.29V180.56h78.38v15.68h15.67v15.67h15.68v47H204.74v15.67H189.07v15.68ZM142,274.61h31.35V258.94h15.68v-47H173.39V196.24H142Z" style="fill:#f7941d"/><path d="M236.09,290.29V180.56H345.82v15.68H267.44v31.35h62.7v15.67h-62.7v31.35h78.38v15.68Z" style="fill:#f7941d"/><path d="M408.52,290.29V274.61H392.85V258.94H377.17V243.26H361.5v-62.7h31.35v47h15.67v15.67H424.2V227.59h15.67v-47h31.35v62.7H455.55v15.68H439.87v15.67H424.2v15.68Z" style="fill:#f7941d"/><path d="M486.9,290.29V180.56H596.63v15.68H518.25v31.35H581v15.67h-62.7v31.35h78.38v15.68Z" style="fill:#f7941d"/><path d="M628,290.29V180.56h31.35v94.05H722v15.68Z" style="fill:#f7941d"/><path d="M753.38,290.29V274.61H737.71V196.24h15.67V180.56h78.38v15.68h15.68v78.37H831.76v15.68Zm15.68-15.68h47V196.24h-47Z" style="fill:#f7941d"/><path d="M863.11,290.29V180.56h94.06v15.68h15.67v47H957.17v15.68H894.46v31.35Zm31.35-47h47v-47h-47Z" style="fill:#f7941d"/><path d="M988.52,290.29V180.56h109.73v15.68h-78.38v31.35h62.7v15.67h-62.7v31.35h78.38v15.68Z" style="fill:#f7941d"/><path d="M1113.92,290.29V180.56h94v15.68h15.68v47H1192.3v15.68H1208v15.67h15.68v15.68h-47V274.61H1161V258.94h-15.68v31.35Zm31.35-47h31.35V227.59h15.68V196.24h-47Z" style="fill:#f7941d"/></g></svg>
